!!!COM: Claude Goudimel
!!!OMD: Psalm 73: Si est-ce que Dieu est tresdoux
**kern	**kern	**kern	**kern
*part4	*part3	*part2	*part1
*staff4	*staff3	*staff2	*staff1
*clefF4	*clefGv2	*clefG2	*clefG2
*k[f#c#]	*k[f#c#]	*k[f#c#]	*k[f#c#]
!!LO:TX:omd:t=
*M4/4	*M4/4	*M4/4	*M4/4
=1	=1	=1	=1
2D	2d	2f#	2a
4BB	4d	4f#	4b
4BB	4B	4f#	4dd
=2	=2	=2	=2
4AA	4e	4a	4cc#
4E	4e	4g#X	2b
2D	2f#	2a	.
.	.	.	[4a
=3	=3	=3	=3
2BB	2B	2d	4a]
.	.	.	4g#X
2AA	2c#	2e	2a
=4	=4	=4	=4
2r	2r	2r	2r
2D	2f#	2a	2dd
=5	=5	=5	=5
4AA	4e	4a	4cc#
4E	4e	4g	4b
2D	2f#	2a	2dd
=6	=6	=6	=6
2D	2d	2f#	2a
4BB	4d	4f#	4b
4AA	4e	4a	4cc#
=7	=7	=7	=7
2D	2f#	2a	2dd
2r	2r	2r	2r
=8	=8	=8	=8
2D	2d	2f#	2a
4GG	4d	4g	4b
4GG	4d	4g	4b
=9	=9	=9	=9
2AA	2c#	2e	2a
2D	2A	2d	2f#
=10	=10	=10	=10
4BB	4B	4d	4g
4AA	4c#	4f#	4a
2GG	2d	2g	2b
=11	=11	=11	=11
2AA	2c#	2e	2a
2r	2r	2r	2r
=12	=12	=12	=12
2D	2A	2d	2f#
4D	4d	4f#	4a
4AA	4c#	4e	4a
=13	=13	=13	=13
2BB	2B	2d	2f#
2BB	2B	2f#	2d
=14	=14	=14	=14
4Cn	4E	4e	4g
4D	4A	2d	4f#
2AA	2A	.	2e
.	.	4c#	.
=15	=15	=15	=15
2D	2A	2d	2d
2r	2r	2r	2r
=16	=16	=16	=16
2F#	2c#	2f#	2a
4E	4e	4g	4b
4A	4e	4a	4cc#
=17	=17	=17	=17
4D	4f#	4a	4dd
4GG	4d	4g	4b
2D	2d	2f#	2a
=18	=18	=18	=18
2E	2B	2e	2g
2BB	2B	2e-X	2f#
=19	=19	=19	=19
2r	2r	2r	2r
2BB	2B	2d	2f#
=20	=20	=20	=20
4E	4B	4e	4g
4D	4d	4f#	4a
2GG	2d	2g	2b
=21	=21	=21	=21
4D	4d	4f#	4a
4E	4B	2e	4g
2BB	2B	.	2f#
.	.	4e-X	.
=22	=22	=22	=22
2E	2B	2en	2e
2r	2r	2r	2r
=23	=23	=23	=23
2D	2d	2f#	2a
4BB	4d	4f#	4b
4AA	4e	4a	4cc#
=24	=24	=24	=24
4D	4d	4f#	4a
4D	4f#	4a	4dd
2AA	2e	2a	2cc#
=25	=25	=25	=25
2E	2e	2g	2b
2AA	2c#	2e	2a
=26	=26	=26	=26
2r	2r	2r	2r
2BB	2B	2d	2f#
=27	=27	=27	=27
4E	4B	4e	4g
4AA	4c#	4e	4a
4AA	4A	4c#	4e
4GG	4B	[4e	4g
=28	=28	=28	=28
2D	2A	4e]	2f#
.	.	2d	.
2AA	2A	.	2e
.	.	4c#	.
=29	=29	=29	=29
1D	1A	1d	1d
==	==	==	==
*-	*-	*-	*-
!!!software: music21 v.9.7.1
!!!software: music21 v.8.3.0
!!!RDF**kern: > = above
!!!RDF**kern: < = below
